X:1
T:“Fear Not!” the Angel Said
T:“Fear Not!” the Angel Said
T:Traditional English melody
T:Carolyn Winfrey Gillette, 1999
T:© 1999 Carolyn Winfrey Gillette Courtesy of the Cyber Hymnal™
T:© 1999 Carolyn Winfrey Gillette Courtesy of the Cyber Hymnal™
C:Traditional English melody
Z:© 1999 Carolyn Winfrey Gillette
Z:Courtesy of the Cyber Hymnal™
%%score ( 1 2 ) ( 3 4 )
L:1/8
Q:1/4=115
M:4/4
K:Eb
V:1 treble 
V:2 treble 
V:3 bass 
V:4 bass 
V:1
 (EF) | [EG]2 [EB]2 [DG]2 [DF]2 | E6 (FG) | [EA]2 [Ec]2 [EB]2 [EG]2 | [DF]6 [Dc]2 | %5
w: 1.~“Fear *|not!” the an- gel|said, “God’s *|joy is in the|air! Now|
w: 2.~Fear *|not, you hun- gry|child, You *|home- less re- fu-|gee, You|
w: 3.~Fear *|not when quest- ions|come: “How *|can I know God’s|way?” “Do|
w: 4.~Fear *|not, you church of|Christ, dis- *|tract- ed and dis-|tressed, For|
 [EB]2 [EG]2 [DG]2 ([DF]E) | [DG]2 [DF]2 E2 B,2 | (EF) [EG]2 [DB]2 (FG) | E6 [DB]2 | %9
w: go to Beth- le- *|hem and see a|new- * born ba- by *|there. A|
w: ba- ttered wo- man, *|bur- dened down— God|came * to set you *|free. For|
w: my pos- sess- ions *|weigh me down?” “Can|God * change me tod- *|ay?” For|
w: long a- go in *|trou- bled times, Christ|came, * and we were *|blest. Our|
 [Ee]2 [GB]2 [Ac]2 [Ad]2 | [Ge]6 (ed) | [Ec]2 [Ee]2 [Ed]2 [Ec]2 | %12
w: Sav- ior, yet a|child! So *|young, and yet the|
w: God’s own Son was|poor; He *|cried and suf- fered,|
w: Je- sus came to|be true *|bread that sa- tis-|
w: Prince of Peace is|born— our *|light, our life, our|
 [EB]6 [Dc]2 [EB]2 [EG]2 [DG]2 ([DF][CE]) | [DG]2 [DF]2 E2 B,2 | (EF) [EG]2 [DB]2 ([DF][DG]) | %15
w: Lord!” God’s grace as- tounds, God’s *|love su- rrounds This|sin- * ful, hurt- ing *|
w: too. God’s grace as- tounds; God’s *|love a- bounds For|peo- * ple just like *|
w: fies; And in his birth, God *|touched the earth. Christ|saves, * for- gives, and *|
w: song! In him we see our *|un- i- ty, In|him * God makes us *|
 E6 |] %16
w: world.|
w: you.|
w: guides.|
w: strong.|
V:2
 E2 | x8 | E6 E2 | x8 | x8 | x7 E | x4 E2 B,2 | x6 D2 | E6 x2 | x8 | x6 E2 | x8 | x16 | x4 E2 B,2 | %14
 x8 | E6 |] %16
V:3
 (G,A,) | [E,B,]2 [E,G,]2 [B,,B,]2 [B,,A,]2 | [E,G,]6 (A,B,) | [E,C]2 [E,A,]2 [E,G,]2 [E,B,]2 | %4
 [B,,B,]6 [B,,A,]2 | [E,G,]2 [E,B,]2 [B,,B,]2 (A,G,) | [B,,B,]2 [B,,B,]2 [E,G,]2 [E,G,]2 | %7
 (G,A,) [E,B,]2 [B,,B,]2 [B,,A,]2 | [E,G,]6 (B,A,) | [E,G,]2 [E,B,]2 A,2 [F,B,]2 | %10
 [E,B,]6 [G,B,]2 | A,2 [A,C]2 [A,B,]2 A,2 | %12
 [E,G,]6 [B,,A,]2 [E,G,]2 [E,B,]2 [B,,B,]2 ([B,,A,][B,,G,]) | [B,,B,]2 [B,,A,]2 [E,G,]2 [B,,B,]2 | %14
 (G,A,) [E,B,]2 [B,,B,]2 ([B,,A,][B,,A,]) | [E,G,]6 |] %16
V:4
 E,2 | x8 | x6 E,2 | x8 | x8 | x6 B,,2 | x8 | E,2 x6 | x6 F,2 | x8 | x8 | A,2 x2 A,2 x2 | x16 | %13
 x8 | E,2 x6 | x6 |] %16

